html/assets/images/dynamic/icon10.svg

<svg width="147" height="73" viewBox="0 0 147 73" fill="none" xmlns="http://www.w3.org/2000/svg">
<g id="Logo Card Wrapper">
<path id="Logo" fill-rule="evenodd" clip-rule="evenodd" d="M108.185 37.0016C108.185 32.0456 105.784 28.1351 101.196 28.1351C96.5884 28.1351 93.8006 32.0456 93.8006 36.9628C93.8006 42.7899 97.0918 45.7325 101.816 45.7325C104.119 45.7325 105.862 45.2098 107.178 44.4742V40.6024C105.862 41.2606 104.352 41.6671 102.435 41.6671C100.557 41.6671 98.8922 41.0089 98.6793 38.7245H108.146C108.146 38.4729 108.185 37.4662 108.185 37.0016ZM98.6212 35.1624C98.6212 32.9749 99.957 32.065 101.177 32.065C102.358 32.065 103.616 32.9749 103.616 35.1624H98.6212ZM86.3277 28.1351C84.4305 28.1351 83.2108 29.0256 82.5332 29.6451L82.2815 28.4448H78.0224V51.0176L82.8623 49.9915L82.8817 44.5129C83.5786 45.0162 84.6047 45.7325 86.3084 45.7325C89.7738 45.7325 92.9294 42.9448 92.9294 36.808C92.9101 31.1938 89.7157 28.1351 86.3277 28.1351ZM85.1661 41.4735C84.0239 41.4735 83.3463 41.067 82.8817 40.5636L82.8623 33.3814C83.3657 32.82 84.0626 32.4328 85.1661 32.4328C86.9279 32.4328 88.1476 34.4074 88.1476 36.9435C88.1476 39.5376 86.9473 41.4735 85.1661 41.4735ZM71.3626 26.9929L76.2219 25.9475V22.0176L71.3626 23.0436V26.9929ZM71.3626 28.4642H76.2219V45.4034H71.3626V28.4642ZM66.1549 29.8967L65.8451 28.4642H61.6634V45.4034H66.5033V33.9235C67.6456 32.4328 69.5815 32.7038 70.1817 32.9168V28.4642C69.5622 28.2319 67.2971 27.806 66.1549 29.8967ZM56.475 24.2632L51.7512 25.2699L51.7318 40.7766C51.7318 43.6417 53.8808 45.7519 56.746 45.7519C58.3335 45.7519 59.4951 45.4615 60.134 45.113V41.1831C59.5145 41.4348 56.4556 42.3253 56.4556 39.4602V32.5877H60.134V28.4642H56.4556L56.475 24.2632ZM43.3878 33.3814C43.3878 32.6264 44.0073 32.336 45.0333 32.336C46.5047 32.336 48.3632 32.7813 49.8346 33.575V29.0256C48.2277 28.3867 46.6402 28.1351 45.0333 28.1351C41.1033 28.1351 38.4897 30.1871 38.4897 33.6137C38.4897 38.9568 45.8465 38.105 45.8465 40.4088C45.8465 41.2993 45.0721 41.5897 43.9879 41.5897C42.3811 41.5897 40.3289 40.9315 38.7027 40.0409V44.6484C40.5032 45.4228 42.323 45.7519 43.9879 45.7519C48.0148 45.7519 50.7832 43.7579 50.7832 40.2926C50.7638 34.5236 43.3878 35.5496 43.3878 33.3814Z" fill="#1B313B"/>
</g>
</svg>

<svg width="147" height="73" fill="none" xmlns="http://www.w3.org/2000/svg"><path fill-rule="evenodd" clip-rule="evenodd" d="M108.185 37.002c0-4.956-2.401-8.867-6.989-8.867-4.608 0-7.395 3.91-7.395 8.828 0 5.827 3.29 8.77 8.015 8.77 2.303 0 4.046-.523 5.362-1.259v-3.872c-1.316.659-2.826 1.065-4.743 1.065-1.878 0-3.543-.658-3.756-2.943h9.467c0-.251.039-1.258.039-1.722zm-9.564-1.84c0-2.187 1.336-3.097 2.556-3.097 1.181 0 2.439.91 2.439 3.097h-4.995zm-12.293-7.027c-1.898 0-3.117.89-3.795 1.51l-.252-1.2h-4.259v22.573l4.84-1.026.02-5.48c.697.504 1.723 1.22 3.426 1.22 3.466 0 6.621-2.787 6.621-8.924-.019-5.614-3.213-8.673-6.601-8.673zm-1.162 13.338c-1.142 0-1.82-.406-2.284-.91l-.02-7.182c.504-.561 1.2-.948 2.304-.948 1.762 0 2.982 1.974 2.982 4.51 0 2.595-1.2 4.53-2.982 4.53zm-13.803-14.48l4.859-1.045v-3.93l-4.86 1.026v3.949zm0 1.471h4.859v16.94h-4.86v-16.94zm-5.208 1.433l-.31-1.433h-4.182v16.94h4.84v-11.48c1.143-1.491 3.079-1.22 3.679-1.007v-4.453c-.62-.232-2.885-.658-4.027 1.433zm-9.68-5.634l-4.724 1.007-.02 15.507c0 2.865 2.15 4.975 5.015 4.975 1.587 0 2.75-.29 3.388-.639v-3.93c-.62.252-3.678 1.142-3.678-1.723v-6.872h3.678v-4.124h-3.678l.019-4.2zm-13.087 9.118c0-.755.62-1.045 1.645-1.045 1.472 0 3.33.445 4.802 1.239v-4.55c-1.607-.638-3.195-.89-4.802-.89-3.93 0-6.543 2.052-6.543 5.479 0 5.343 7.356 4.491 7.356 6.795 0 .89-.774 1.18-1.858 1.18-1.607 0-3.66-.657-5.285-1.548v4.607a13.42 13.42 0 005.285 1.104c4.027 0 6.795-1.994 6.795-5.46-.02-5.768-7.395-4.742-7.395-6.91z" fill="#1B313B"/></svg>
